frontend/public/svg/interface/lock.svg

<svg width="110" height="156" viewBox="0 0 110 156" fill="none" xmlns="http://www.w3.org/2000/svg">
<g clip-path="url(#clip0)">
<path d="M60.0786 0.40332C61.5832 0.691268 63.0903 0.966224 64.5917 1.26977C77.4926 3.88212 85.9155 11.5638 90.0205 24.0061C92.0506 30.1597 92.872 36.5556 93.2846 43.0017C93.6253 48.3258 93.9049 53.6539 94.2228 58.9793C94.2689 59.7476 94.3772 60.512 94.47 61.4116C95.4309 61.7659 96.3243 62.1825 97.2599 62.4263C103.952 64.1644 106.992 68.9263 107.994 75.3749C108.216 76.8049 108.396 78.2414 108.476 79.6818C109.491 98.0027 109.788 116.33 108.671 134.656C108.495 139.123 107.113 143.459 104.671 147.201C102.738 150.221 99.774 152.434 96.3327 153.429C90.7731 155.007 85.0169 155.781 79.2386 155.725C61.2635 155.735 43.2884 155.587 25.3134 155.282C21.5423 155.165 17.7897 154.704 14.1026 153.902C6.31689 152.327 2.341 147.987 1.42747 140.097C1.02719 136.452 0.880845 132.785 0.989512 129.12C1.33014 115.011 1.72786 100.902 2.26832 86.7993C2.50254 80.6718 3.39594 74.6762 6.88978 69.3176C9.45 65.3909 12.7719 62.7487 17.3058 61.6125C18.1603 61.3987 18.9927 61.084 20.1956 60.7024C20.3591 59.2145 20.5563 57.6033 20.7107 55.9867C21.39 48.9115 21.7333 41.7829 22.8375 34.7753C23.6143 29.8456 24.9599 25.0231 26.8472 20.4045C31.0437 10.1949 39.2719 4.54054 49.6528 1.72474C51.5506 1.20994 53.4886 0.841359 55.4078 0.405859L60.0786 0.40332ZM51.7816 148.792C51.7816 148.644 51.7874 148.496 51.7907 148.348C57.4522 148.348 63.1202 148.509 68.7746 148.308C76.0834 148.048 83.4221 148.105 90.644 146.561C96.3691 145.337 98.769 143.1 99.4224 137.35C99.7987 133.596 99.9758 129.824 99.9531 126.051C99.9817 121.939 99.4405 117.802 99.7273 113.718C100.462 103.244 99.6183 92.8281 99.0675 82.3962C98.9682 80.5112 98.9144 78.6113 98.6691 76.7412C98.3447 74.2511 97.2359 72.3212 94.496 71.8084C89.7078 70.9146 84.9585 69.5158 80.1307 69.198C70.5004 68.5629 60.8331 68.4381 51.1775 68.247C41.1489 68.0481 31.2591 69.4755 21.3972 71.122C20.1376 71.2884 18.9304 71.7317 17.8619 72.42C16.7935 73.1084 15.8902 74.0255 15.2166 75.1045C12.8407 78.7146 12.3249 82.8213 12.1082 86.8799C11.229 103.308 10.5718 119.748 9.87757 136.185C9.8075 137.842 10.0521 139.512 10.128 141.176C10.2636 144.13 11.811 145.945 14.6424 146.562C17.0022 147.169 19.409 147.574 21.8371 147.775C31.8145 148.207 41.7996 148.468 51.7816 148.792ZM83.7679 59.3329C83.3948 53.0435 83.2703 47.267 82.6513 41.5438C82.057 36.0435 81.4004 30.4768 79.9613 25.1592C77.8923 17.5106 73.0145 12.15 65.0471 10.1031C60.9655 8.96486 56.6565 8.92457 52.5543 9.98621C43.8642 12.3548 37.6083 17.3578 34.788 26.2719C32.0292 34.9923 30.5499 43.9429 29.4528 52.9818C29.2069 55.0117 29.0441 57.052 28.8092 59.429L35.7904 58.5588C36.1148 53.5655 36.3808 48.918 36.7162 44.275C37.0698 39.3896 37.7654 34.5457 39.5132 29.9489C42.2798 22.6735 49.7093 17.3072 57.578 17.4398C65.4468 17.5724 71.3464 21.2389 74.3861 28.7978C75.3139 31.0499 76.121 33.3499 76.8042 35.6879C78.4548 41.5158 78.6404 47.5126 78.6332 53.5244C78.6332 55.2619 78.7545 56.9988 78.8279 58.8832L83.7679 59.3329ZM68.1562 58.0394C68.0875 51.9203 68.724 45.7207 67.6586 39.5795C67.1383 36.5269 66.2961 33.5382 65.1471 30.6634C63.4063 26.3617 59.1041 24.6431 54.698 26.1413C52.9908 26.6576 51.4315 27.5751 50.15 28.8175C48.8684 30.0598 47.9019 31.5911 47.3307 33.2836C44.561 41.1817 44.1516 49.4731 42.9837 58.0394H68.1562Z" fill="black"/>
<path d="M49.2699 123.088C49.1233 120.342 49.2291 117.728 47.1496 115.319C45.1247 112.974 45.6775 109.264 47.7147 106.674C49.6501 104.214 52.4887 103.489 55.7334 104.623C61.2846 106.564 62.7237 110.858 59.2512 115.707C58.8347 116.268 58.5464 116.914 58.4069 117.599C58.2674 118.284 58.2802 118.992 58.4441 119.672C58.8714 122.292 59.0083 124.952 58.8522 127.602C58.6303 130.482 56.5165 132.354 54.1808 132.401C51.7302 132.451 49.6625 130.429 49.2978 127.414C49.2023 125.973 49.193 124.529 49.2699 123.088Z" fill="black"/>
</g>
<defs>
<clipPath id="clip0">
<rect width="109" height="156" fill="white" transform="translate(0.777344)"/>
</clipPath>
</defs>
</svg>

<svg xmlns="http://www.w3.org/2000/svg" width="110" height="156" fill="none" viewBox="0 0 110 156"><g fill="#000" clip-path="url(#a)"><path d="M60.079.403c1.504.288 3.011.563 4.513.867 12.9 2.612 21.323 10.294 25.429 22.736 2.03 6.154 2.851 12.55 3.264 18.996.34 5.324.62 10.652.938 15.977.046.769.154 1.533.247 2.433.96.354 1.854.77 2.79 1.014 6.692 1.738 9.732 6.5 10.734 12.949.222 1.43.402 2.866.482 4.307 1.015 18.32 1.312 36.648.195 54.974a24.74 24.74 0 0 1-4 12.545 14.77 14.77 0 0 1-8.338 6.228 60.5 60.5 0 0 1-17.094 2.296q-26.963.015-53.926-.443a62 62 0 0 1-11.21-1.38c-7.786-1.575-11.762-5.915-12.676-13.805A79 79 0 0 1 .99 129.12c.34-14.109.738-28.218 1.278-42.32.235-6.128 1.128-12.124 4.622-17.482 2.56-3.927 5.882-6.57 10.416-7.706.854-.213 1.687-.528 2.89-.91.163-1.487.36-3.099.515-4.715.679-7.076 1.022-14.204 2.127-21.212a64.6 64.6 0 0 1 4.01-14.37c4.196-10.21 12.424-15.864 22.805-18.68C51.55 1.21 53.489.84 55.408.405zm-8.297 148.389q.002-.222.009-.444c5.661 0 11.33.161 16.984-.04 7.308-.26 14.647-.203 21.869-1.747 5.725-1.224 8.125-3.461 8.778-9.211.377-3.754.554-7.526.531-11.299.029-4.112-.513-8.249-.226-12.333.735-10.474-.109-20.89-.66-31.322-.099-1.885-.153-3.785-.398-5.655-.324-2.49-1.433-4.42-4.173-4.933-4.788-.893-9.537-2.292-14.365-2.61-9.63-.635-19.298-.76-28.953-.951-10.03-.199-19.919 1.228-29.78 2.875a8.61 8.61 0 0 0-6.181 3.983c-2.376 3.61-2.892 7.716-3.109 11.775-.879 16.428-1.536 32.868-2.23 49.305-.07 1.657.174 3.327.25 4.991.136 2.954 1.683 4.769 4.514 5.386a43 43 0 0 0 7.195 1.213c9.978.432 19.963.693 29.945 1.017m31.986-89.46c-.373-6.288-.498-12.065-1.117-17.788-.594-5.5-1.25-11.067-2.69-16.385-2.069-7.648-6.946-13.009-14.914-15.056a24.06 24.06 0 0 0-12.493-.117c-8.69 2.369-14.946 7.372-17.766 16.286-2.759 8.72-4.238 17.67-5.335 26.71-.246 2.03-.409 4.07-.644 6.447l6.981-.87c.325-4.993.59-9.641.926-14.284.354-4.885 1.05-9.73 2.797-14.326 2.767-7.276 10.196-12.642 18.065-12.51 7.869.133 13.768 3.8 16.808 11.359a69 69 0 0 1 2.418 6.89c1.65 5.828 1.836 11.825 1.83 17.836 0 1.738.12 3.475.194 5.36zM68.156 58.04c-.069-6.119.568-12.318-.497-18.46a44 44 0 0 0-2.512-8.916c-1.74-4.301-6.043-6.02-10.449-4.522a11.2 11.2 0 0 0-4.548 2.677 11.2 11.2 0 0 0-2.82 4.466c-2.769 7.898-3.178 16.19-4.346 24.755z"/><path d="M49.27 123.088c-.147-2.746-.04-5.36-2.12-7.769-2.025-2.345-1.472-6.055.565-8.645 1.935-2.46 4.774-3.185 8.018-2.051 5.552 1.941 6.99 6.235 3.518 11.084a4.77 4.77 0 0 0-.807 3.965c.427 2.62.564 5.28.408 7.93-.222 2.88-2.335 4.752-4.671 4.799-2.45.05-4.518-1.972-4.883-4.987a36 36 0 0 1-.028-4.326"/></g><defs><clipPath id="a"><path fill="#fff" d="M.777 0h109v156h-109z"/></clipPath></defs></svg>
